svg/u1fa9d.svg

<svg viewBox="0 0 128 128" xmlns="http://www.w3.org/2000/svg">
  <g>
    <g>
      <path d="M27.81,68.19c-13.06,23.4,1.61,49.65,24.61,54.83c15.27,3.44,33.17,0.73,42.28-11.27 c10.86-14.29,8.92-27.66,7.29-33.66c-2.12-7.84-2.02-12.28,0.38-15.01c2.69-3.06,3.1-4.74,2.46-6.62 c-0.81-2.36-2.81-3.01-5.29-2.81c-4.42,0.35-10.16,2.78-10.99,12.45c-0.53,6.22,3.34,22.57-16.55,24.61 c-15.88,1.62-23-17.12-18.05-26.52c3.47-6.58,5.88-9.34,19.3-24.18c8.38-9.27,9.4-14.62,9.4-17.76 c0-11.02-9.55-19.81-20.83-18.54c-8.57,0.96-15.47,7.9-16.39,16.48c-0.62,5.72,1.36,10.98,4.89,14.77 c1.58,1.69,1.69,4.28,0.18,6.03c-1.4,1.63-3.06,3.69-5.34,6.05C37.92,54.54,33.82,57.42,27.81,68.19z M70.45,22.26 c0,4.52-3.09,8.18-6.9,8.18c-3.81,0-6.9-3.66-6.9-8.18c0-4.52,3.09-8.18,6.9-8.18C67.36,14.08,70.45,17.74,70.45,22.26z" fill="#FFCA28"/>
      <path d="M27.81,68.19c-13.06,23.4,1.61,49.65,24.61,54.83c15.27,3.44,33.17,0.73,42.28-11.27 c10.86-14.29,8.92-27.66,7.29-33.66c-2.12-7.84-2.02-12.28,0.38-15.01c2.69-3.06,3.1-4.74,2.46-6.62 c-0.81-2.36-2.81-3.01-5.29-2.81c-4.42,0.35-10.16,2.78-10.99,12.45c-0.53,6.22,3.34,22.57-16.55,24.61 c-15.88,1.62-23-17.12-18.05-26.52c3.47-6.58,5.88-9.34,19.3-24.18c8.38-9.27,9.4-14.62,9.4-17.76 c0-11.02-9.55-19.81-20.83-18.54c-8.57,0.96-15.47,7.9-16.39,16.48c-0.62,5.72,1.36,10.98,4.89,14.77 c1.58,1.69,1.69,4.28,0.18,6.03c-1.4,1.63-3.06,3.69-5.34,6.05C37.92,54.54,33.82,57.42,27.81,68.19z M69.45,22.26 c0,4.52-3.09,8.18-6.9,8.18c-3.81,0-6.9-3.66-6.9-8.18c0-4.52,3.09-8.18,6.9-8.18C66.36,14.08,69.45,17.74,69.45,22.26z" fill="#FFCA28"/>
      <path d="M73.25,40.01" opacity="0.33" fill="none" stroke="#FFFFFF" stroke-width="6" stroke-miterlimit="10"/>
      <path d="M65.28,99.93c-10.6-1.86-17.82-11.37-19.09-14.35c-1.15-2.7-4.19-1.79-2.14,6.59 c1.34,5.49,4.96,10.26,9.76,13.24c7.3,4.53,16.79,5.08,24.14,1.02c8.72-4.83,12.24-12.28,11.87-15.91 c-0.06-0.58-1.05-2.78-3.42,1.76C85.62,93.75,75.88,101.79,65.28,99.93z" fill="#FFF59D"/>
      <path d="M77.96,99.3c11.45-5.68,12.34-15.03,10.56-27.05c0,0,0,0,0,0c-0.06,7.32-1.59,16.93-16.53,18.46 C56.12,92.34,49.15,73.67,53.95,64.2c4.19-8.29,14.29-18.63,14.29-18.63S56.11,53.95,50.53,64c-5.31,9.55-7.16,22.27,0.88,30.26 c3.28,3.25,7.38,5.73,11.89,6.82C68.3,102.27,73.38,101.58,77.96,99.3z" fill="#E2A610"/>
    </g>
    <path d="M99.67,56.25c1.75,1.27-0.31,3.02-1.69,3.56c-3.75,1.45-5.34,5.2-5.8,3.77 c-0.42-1.32,0.08-3.42,2.56-5.98C95.91,56.39,98.42,55.34,99.67,56.25z" fill="#FFF59D"/>
    <path d="M61.35,8.26c1.37,2.59-1.67,2.96-3.42,3.79c-6.3,2.99-5.58,10.11-7.03,9.78s-1.89-2.7-1.83-3.85 c0.19-3.98,2.43-7.08,4.03-8.3C56.95,6.73,60.31,6.31,61.35,8.26z" fill="#FFF59D"/>
    <path d="M60.12,22.26c0-3.59,1.95-6.63,4.67-7.73c-0.7-0.28-1.45-0.45-2.23-0.45c-3.81,0-6.9,3.66-6.9,8.18 c0,4.52,3.09,8.18,6.9,8.18c0.78,0,1.53-0.16,2.23-0.45C62.07,28.89,60.12,25.85,60.12,22.26z" fill="#E2A610"/>
  </g>
</svg>

<svg viewBox="0 0 128 128" xmlns="http://www.w3.org/2000/svg">
  <defs/>
  <path d="M27.81,68.19 C14.75,91.59 29.42,117.84 52.42,123.02 C67.69,126.46 85.59,123.75 94.7,111.75 C105.56,97.46 103.62,84.09 101.99,78.09 C99.87,70.25 99.97,65.81 102.37,63.08 C105.06,60.02 105.47,58.34 104.83,56.46 C104.02,54.1 102.02,53.45 99.54,53.65 C95.12,54 89.38,56.43 88.55,66.1 C88.02,72.32 91.89,88.67 72,90.71 C56.12,92.33 49,73.59 53.95,64.19 C57.42,57.61 59.83,54.85 73.25,40.01 C81.63,30.74 82.65,25.39 82.65,22.25 C82.65,11.23 73.1,2.44 61.82,3.71 C53.25,4.67 46.35,11.61 45.43,20.19 C44.81,25.91 46.79,31.17 50.32,34.96 C51.9,36.65 52.01,39.24 50.5,40.99 C49.1,42.62 47.44,44.68 45.16,47.04 C37.92,54.54 33.82,57.42 27.81,68.19 Z M70.45,22.26 C70.45,26.78 67.36,30.44 63.55,30.44 C59.74,30.44 56.65,26.78 56.65,22.26 C56.65,17.74 59.74,14.08 63.55,14.08 C67.36,14.08 70.45,17.74 70.45,22.26 Z" fill="#FFCA28"/>
  <path d="M27.81,68.19 C14.75,91.59 29.42,117.84 52.42,123.02 C67.69,126.46 85.59,123.75 94.7,111.75 C105.56,97.46 103.62,84.09 101.99,78.09 C99.87,70.25 99.97,65.81 102.37,63.08 C105.06,60.02 105.47,58.34 104.83,56.46 C104.02,54.1 102.02,53.45 99.54,53.65 C95.12,54 89.38,56.43 88.55,66.1 C88.02,72.32 91.89,88.67 72,90.71 C56.12,92.33 49,73.59 53.95,64.19 C57.42,57.61 59.83,54.85 73.25,40.01 C81.63,30.74 82.65,25.39 82.65,22.25 C82.65,11.23 73.1,2.44 61.82,3.71 C53.25,4.67 46.35,11.61 45.43,20.19 C44.81,25.91 46.79,31.17 50.32,34.96 C51.9,36.65 52.01,39.24 50.5,40.99 C49.1,42.62 47.44,44.68 45.16,47.04 C37.92,54.54 33.82,57.42 27.81,68.19 Z M69.45,22.26 C69.45,26.78 66.36,30.44 62.55,30.44 C58.74,30.44 55.65,26.78 55.65,22.26 C55.65,17.74 58.74,14.08 62.55,14.08 C66.36,14.08 69.45,17.74 69.45,22.26 Z" fill="#FFCA28"/>
  <path d="M65.28,99.93 C54.68,98.07 47.46,88.56 46.19,85.58 C45.04,82.88 42,83.79 44.05,92.17 C45.39,97.66 49.01,102.43 53.81,105.41 C61.11,109.94 70.6,110.49 77.95,106.43 C86.67,101.6 90.19,94.15 89.82,90.52 C89.76,89.94 88.77,87.74 86.4,92.28 C85.62,93.75 75.88,101.79 65.28,99.93 Z" fill="#FFF59D"/>
  <path d="M77.96,99.3 C89.41,93.62 90.3,84.27 88.52,72.25 C88.52,72.25 88.52,72.25 88.52,72.25 C88.46,79.57 86.93,89.18 71.99,90.71 C56.12,92.34 49.15,73.67 53.95,64.2 C58.14,55.91 68.24,45.57 68.24,45.57 C68.24,45.57 56.11,53.95 50.53,64 C45.22,73.55 43.37,86.27 51.41,94.26 C54.69,97.51 58.79,99.99 63.3,101.08 C68.3,102.27 73.38,101.58 77.96,99.3 Z" fill="#E2A610"/>
  <path d="M99.67,56.25 C101.42,57.52 99.36,59.27 97.98,59.81 C94.23,61.26 92.64,65.01 92.18,63.58 C91.76,62.26 92.26,60.16 94.74,57.6 C95.91,56.39 98.42,55.34 99.67,56.25 Z" fill="#FFF59D"/>
  <path d="M61.35,8.26 C62.72,10.85 59.68,11.22 57.93,12.05 C51.63,15.04 52.35,22.16 50.9,21.83 C49.45,21.5 49.01,19.13 49.07,17.98 C49.26,14 51.5,10.9 53.1,9.68 C56.95,6.73 60.31,6.31 61.35,8.26 Z" fill="#FFF59D"/>
  <path d="M60.12,22.26 C60.12,18.67 62.07,15.63 64.79,14.53 C64.09,14.25 63.34,14.08 62.56,14.08 C58.75,14.08 55.66,17.74 55.66,22.26 C55.66,26.78 58.75,30.44 62.56,30.44 C63.34,30.44 64.09,30.28 64.79,29.99 C62.07,28.89 60.12,25.85 60.12,22.26 Z" fill="#E2A610"/>
</svg>
